assets/icons/logo.svg

<svg width="156" height="34" viewBox="0 0 156 34" fill="none" xmlns="http://www.w3.org/2000/svg">
<path d="M9.89312 32.3081C6.81219 32.3081 3.83396 31.2469 1.23228 28.8506L3.62856 25.8724C5.40865 27.4813 7.39414 28.7137 9.92735 28.7137C12.2209 28.7137 13.6929 27.4471 13.6929 25.667V25.6327C13.6929 24.1265 12.9056 23.1338 9.10577 21.7302C4.55284 20.0186 2.19079 18.3412 2.19079 14.5072V14.4387C2.19079 10.502 5.34019 7.72911 9.79042 7.72911C12.5633 7.72911 15.1307 8.61916 17.3216 10.5362L15.0622 13.5829C13.4191 12.2478 11.6047 11.3235 9.68772 11.3235C7.53107 11.3235 6.196 12.5217 6.196 14.0964V14.1306C6.196 15.808 7.08605 16.698 11.1597 18.2727C15.61 19.9844 17.6639 21.8329 17.6639 25.3247V25.3931C17.6639 29.6037 14.3776 32.3081 9.89312 32.3081ZM20.739 32V8.03721H24.7099V32H20.739ZM33.689 32V11.7343H27.3902V8.03721H43.9588V11.7343H37.66V32H33.689ZM46.4861 32V8.03721H61.5827V11.6316H50.4229V18.1358H60.3161V21.7302H50.4229V28.4056H61.7538V32H46.4861ZM64.1967 32V27.4471H68.5784V32H64.1967ZM72.0375 32V8.03721H80.5957C83.1973 8.03721 85.3882 8.75609 86.7233 10.0912C87.7845 11.1524 88.3322 12.4874 88.3322 14.1306V14.2333C88.3322 17.1773 86.6206 18.7178 84.8063 19.6078C87.4422 20.5321 89.3592 22.1068 89.3592 25.3247V25.4616C89.3592 29.6722 85.9359 32 80.8353 32H72.0375ZM84.3612 14.8495V14.781C84.3612 12.7613 82.8892 11.5974 80.3218 11.5974H75.94V18.2385H80.0822C82.6839 18.2385 84.3612 17.0746 84.3612 14.8495ZM85.3882 24.9823C85.3882 22.8941 83.7793 21.5933 80.7668 21.5933H75.94V28.4398H80.938C83.6766 28.4398 85.3882 27.2417 85.3882 25.0508V24.9823ZM97.1875 32V22.4491L89.1086 8.03721H93.6615L99.2072 18.4097L104.787 8.03721H109.203L101.158 22.4149V32H97.1875Z" fill="#0040C1"/>
<rect x="114" y="2" width="40" height="24" rx="12" fill="#0040C1"/>
<path filled="1" d="M119.554 18.5V8.7H123.796C124.674 8.7 125.43 8.84467 126.064 9.134C126.699 9.414 127.189 9.82 127.534 10.352C127.88 10.884 128.052 11.5187 128.052 12.256C128.052 12.984 127.88 13.614 127.534 14.146C127.189 14.678 126.699 15.0887 126.064 15.378C125.43 15.658 124.674 15.798 123.796 15.798H120.814L121.822 14.776V18.5H119.554ZM121.822 15.028L120.814 13.95H123.67C124.37 13.95 124.893 13.8007 125.238 13.502C125.584 13.2033 125.756 12.788 125.756 12.256C125.756 11.7147 125.584 11.2947 125.238 10.996C124.893 10.6973 124.37 10.548 123.67 10.548H120.814L121.822 9.47V15.028ZM129.167 18.5V8.7H133.409C134.286 8.7 135.042 8.84467 135.677 9.134C136.312 9.414 136.802 9.82 137.147 10.352C137.492 10.884 137.665 11.5187 137.665 12.256C137.665 12.984 137.492 13.614 137.147 14.146C136.802 14.6687 136.312 15.07 135.677 15.35C135.042 15.63 134.286 15.77 133.409 15.77H130.427L131.435 14.776V18.5H129.167ZM135.397 18.5L132.947 14.944H135.369L137.847 18.5H135.397ZM131.435 15.028L130.427 13.964H133.283C133.983 13.964 134.506 13.8147 134.851 13.516C135.196 13.208 135.369 12.788 135.369 12.256C135.369 11.7147 135.196 11.2947 134.851 10.996C134.506 10.6973 133.983 10.548 133.283 10.548H130.427L131.435 9.47V15.028ZM143.717 18.668C142.943 18.668 142.224 18.542 141.561 18.29C140.908 18.038 140.339 17.6833 139.853 17.226C139.377 16.7687 139.004 16.232 138.733 15.616C138.472 15 138.341 14.328 138.341 13.6C138.341 12.872 138.472 12.2 138.733 11.584C139.004 10.968 139.382 10.4313 139.867 9.974C140.353 9.51667 140.922 9.162 141.575 8.91C142.229 8.658 142.938 8.532 143.703 8.532C144.478 8.532 145.187 8.658 145.831 8.91C146.485 9.162 147.049 9.51667 147.525 9.974C148.011 10.4313 148.389 10.968 148.659 11.584C148.93 12.1907 149.065 12.8627 149.065 13.6C149.065 14.328 148.93 15.0047 148.659 15.63C148.389 16.246 148.011 16.7827 147.525 17.24C147.049 17.688 146.485 18.038 145.831 18.29C145.187 18.542 144.483 18.668 143.717 18.668ZM143.703 16.736C144.142 16.736 144.543 16.6613 144.907 16.512C145.281 16.3627 145.607 16.148 145.887 15.868C146.167 15.588 146.382 15.2567 146.531 14.874C146.69 14.4913 146.769 14.0667 146.769 13.6C146.769 13.1333 146.69 12.7087 146.531 12.326C146.382 11.9433 146.167 11.612 145.887 11.332C145.617 11.052 145.295 10.8373 144.921 10.688C144.548 10.5387 144.142 10.464 143.703 10.464C143.265 10.464 142.859 10.5387 142.485 10.688C142.121 10.8373 141.799 11.052 141.519 11.332C141.239 11.612 141.02 11.9433 140.861 12.326C140.712 12.7087 140.637 13.1333 140.637 13.6C140.637 14.0573 140.712 14.482 140.861 14.874C141.02 15.2567 141.235 15.588 141.505 15.868C141.785 16.148 142.112 16.3627 142.485 16.512C142.859 16.6613 143.265 16.736 143.703 16.736Z" fill="white"/>
</svg>

<svg xmlns="http://www.w3.org/2000/svg" width="156" height="34" fill="none"><path fill="#0040C1" d="M9.893 32.308c-3.08 0-6.059-1.061-8.66-3.457l2.396-2.979c1.78 1.61 3.765 2.842 6.298 2.842 2.294 0 3.766-1.267 3.766-3.047v-.034c0-1.506-.787-2.5-4.587-3.903-4.553-1.711-6.915-3.389-6.915-7.223v-.068c0-3.937 3.15-6.71 7.6-6.71 2.772 0 5.34.89 7.53 2.807l-2.259 3.047c-1.643-1.335-3.457-2.26-5.374-2.26-2.157 0-3.492 1.199-3.492 2.773v.035c0 1.677.89 2.567 4.964 4.142 4.45 1.711 6.504 3.56 6.504 7.052v.068c0 4.21-3.286 6.915-7.77 6.915M20.74 32V8.037h3.97V32zm12.95 0V11.734H27.39V8.037H43.96v3.697H37.66V32zm12.797 0V8.037h15.097v3.595h-11.16v6.504h9.893v3.594h-9.893v6.676h11.33V32zm17.71 0v-4.553h4.382V32zm7.841 0V8.037h8.559c2.601 0 4.792.72 6.127 2.054 1.061 1.061 1.61 2.396 1.61 4.04v.102c0 2.944-1.712 4.485-3.527 5.375 2.636.924 4.553 2.499 4.553 5.717v.137c0 4.21-3.423 6.538-8.524 6.538zm12.324-17.15v-.069c0-2.02-1.472-3.184-4.04-3.184H75.94v6.641h4.142c2.602 0 4.28-1.163 4.28-3.388m1.027 10.132c0-2.088-1.609-3.389-4.621-3.389H75.94v6.847h4.998c2.739 0 4.45-1.198 4.45-3.39zM97.188 32v-9.55l-8.08-14.413h4.554l5.545 10.373 5.58-10.373h4.416l-8.045 14.378V32z"/><rect width="40" height="24" x="114" y="2" fill="#0040C1" rx="12"/><path fill="#fff" d="M119.554 18.5V8.7h4.242q1.317 0 2.268.434.953.42 1.47 1.218.519.798.518 1.904 0 1.092-.518 1.89-.517.798-1.47 1.232-.951.42-2.268.42h-2.982l1.008-1.022V18.5zm2.268-3.472-1.008-1.078h2.856q1.05 0 1.568-.448.519-.448.518-1.246 0-.812-.518-1.26t-1.568-.448h-2.856l1.008-1.078zm7.345 3.472V8.7h4.242q1.315 0 2.268.434.952.42 1.47 1.218t.518 1.904q0 1.092-.518 1.89-.518.784-1.47 1.204-.953.42-2.268.42h-2.982l1.008-.994V18.5zm6.23 0-2.45-3.556h2.422l2.478 3.556zm-3.962-3.472-1.008-1.064h2.856q1.05 0 1.568-.448.518-.462.518-1.26 0-.812-.518-1.26t-1.568-.448h-2.856l1.008-1.078zm12.282 3.64a6 6 0 0 1-2.156-.378 5.2 5.2 0 0 1-1.708-1.064 5 5 0 0 1-1.12-1.61 5.1 5.1 0 0 1-.392-2.016q0-1.092.392-2.016a4.9 4.9 0 0 1 1.134-1.61 5.2 5.2 0 0 1 1.708-1.064 5.9 5.9 0 0 1 2.128-.378q1.162 0 2.128.378a5 5 0 0 1 1.694 1.064 4.87 4.87 0 0 1 1.54 3.626 5.05 5.05 0 0 1-.406 2.03 4.9 4.9 0 0 1-1.134 1.61 5.1 5.1 0 0 1-1.694 1.05 5.8 5.8 0 0 1-2.114.378m-.014-1.932q.658 0 1.204-.224.56-.224.98-.644t.644-.994a3.3 3.3 0 0 0 .238-1.274 3.3 3.3 0 0 0-.238-1.274 2.85 2.85 0 0 0-.644-.994 2.7 2.7 0 0 0-.966-.644 3.3 3.3 0 0 0-1.218-.224q-.657 0-1.218.224-.546.225-.966.644t-.658.994a3.5 3.5 0 0 0-.224 1.274q0 .686.224 1.274.239.574.644.994.42.42.98.644.561.224 1.218.224"/></svg>
